icons/minus-circle.svg

<svg width="24" height="24" viewBox="0 0 24 24" fill="none" xmlns="http://www.w3.org/2000/svg">
<mask id="path-1-inside-1" fill="white">
<path fill-rule="evenodd" clip-rule="evenodd" d="M12 20.5C16.6944 20.5 20.5 16.6944 20.5 12C20.5 7.30558 16.6944 3.5 12 3.5C7.30558 3.5 3.5 7.30558 3.5 12C3.5 16.6944 7.30558 20.5 12 20.5ZM7.99997 12.75H16V11.25H7.99997V12.75Z"/>
</mask>
<path fill-rule="evenodd" clip-rule="evenodd" d="M12 20.5C16.6944 20.5 20.5 16.6944 20.5 12C20.5 7.30558 16.6944 3.5 12 3.5C7.30558 3.5 3.5 7.30558 3.5 12C3.5 16.6944 7.30558 20.5 12 20.5ZM7.99997 12.75H16V11.25H7.99997V12.75Z" fill="#222222"/>
<path d="M16 12.75V14.25H17.5V12.75H16ZM7.99997 12.75H6.49997V14.25H7.99997V12.75ZM16 11.25H17.5V9.75H16V11.25ZM7.99997 11.25V9.75H6.49997V11.25H7.99997ZM19 12C19 15.866 15.866 19 12 19V22C17.5228 22 22 17.5228 22 12H19ZM12 5C15.866 5 19 8.13401 19 12H22C22 6.47715 17.5228 2 12 2V5ZM5 12C5 8.13401 8.13401 5 12 5V2C6.47715 2 2 6.47715 2 12H5ZM12 19C8.13401 19 5 15.866 5 12H2C2 17.5228 6.47715 22 12 22V19ZM16 11.25H7.99997V14.25H16V11.25ZM14.5 11.25V12.75H17.5V11.25H14.5ZM7.99997 12.75H16V9.75H7.99997V12.75ZM9.49997 12.75V11.25H6.49997V12.75H9.49997Z" fill="#222222" mask="url(#path-1-inside-1)"/>
</svg>

<svg xmlns="http://www.w3.org/2000/svg" width="24" height="24" viewBox="0 0 24 24">
    <mask id="d0gqz02qra" fill="#fff">
        <path fill-rule="evenodd"
            d="M12 20.5c4.694 0 8.5-3.806 8.5-8.5S16.694 3.5 12 3.5 3.5 7.306 3.5 12s3.806 8.5 8.5 8.5zm-4-7.75h8v-1.5H8v1.5z"
            clip-rule="evenodd" />
    </mask>
    <path fill="#222" fill-rule="evenodd"
        d="M12 20.5c4.694 0 8.5-3.806 8.5-8.5S16.694 3.5 12 3.5 3.5 7.306 3.5 12s3.806 8.5 8.5 8.5zm-4-7.75h8v-1.5H8v1.5z"
        clip-rule="evenodd" />
    <path fill="#222"
        d="M16 12.75v1.5h1.5v-1.5H16zm-8 0H6.5v1.5H8v-1.5zm8-1.5h1.5v-1.5H16v1.5zm-8 0v-1.5H6.5v1.5H8zM19 12c0 3.866-3.134 7-7 7v3c5.523 0 10-4.477 10-10h-3zm-7-7c3.866 0 7 3.134 7 7h3c0-5.523-4.477-10-10-10v3zm-7 7c0-3.866 3.134-7 7-7V2C6.477 2 2 6.477 2 12h3zm7 7c-3.866 0-7-3.134-7-7H2c0 5.523 4.477 10 10 10v-3zm4-7.75H8v3h8v-3zm-1.5 0v1.5h3v-1.5h-3zM8 12.75h8v-3H8v3zm1.5 0v-1.5h-3v1.5h3z"
        mask="url(#d0gqz02qra)" />
</svg>
